X:1
T:Title
%%score [ 1 2 3 4 ]
L:1/8
Q:1/4=120
M:2/2
K:F
V:1 treble nm="S."
V:2 treble nm="A."
V:3 treble-8 nm="T."
V:4 bass nm="B."
V:1
!mf! c4 F3 G | A"^Come, shepherds, follow me"Bc A Bcd_e | %2
w: Come, shep- herds,|fol- low me, run up a- pace the|
 f2 F2 (GAB"^John Bennet""^(late 16th/early 17th cent.)"c) |[M:2/2] d3 c B2 A2 | (G2 F2 G4 | %5
w: moun- tain, run * * *|up a- pace the|moun * *|
 AGAB c4) | d4 z4 | z2 B2 Bcd_e | f2 F2 G2 AB | c2 A2 G4 | A4 z2!p! F2 | c4 z2 c2 | c4 z2 c2 | %13
w: |tain,|run up a- pace the|moun- tain, run up a-|pace the moun-|tain. See,|lo, see,|lo, see,|
 f3 _e d2 c2 | B2 F2 z2!mf! F2 | B3 A G2 F2 | F2 c2 d3 c | B2 A2 G4 | A4!p! c4- | c4 B4- | B4 A4 | %21
w: lo, be- sides the|foun- tain, see,|lo, be- sides, be-|sides, see, lo, be-|\-sides the foun-|tain Love|* laid|* to|
 G4!pp! c4- | c4 c4- | c2 B2 B4- |"^___" B2 A2 G2 G2 | A4 z4 | z2!p! F2 B3 A | B2 A2 (G2 F2 | %28
w: rest, How|* sweet|* ly, sweet|* ly sleep- eth|he,|how sweet- ly,|sweet- ly sleep *|
 E2 F4) E2 | F3 G A2 A2 | G2 F2 F2 f2 | _e2 d4 c2- | cB (B4 A2) | B4"^cresc." B2 Bc | %34
w: * * eth|he, how sweet- ly|sleep- eth he; O|take heed, come|* not nigh *|him, but haste we|
 d_e (fe dcBc | dcBA GABG | A2 B4 A2) | B8 |[M:3/4]!f! d2 f2 _e2 | d6 | c2 B2 G2 | %41
w: hence and fly * * * * *|||him,|and, lov- ers,|dance,|and, lov- ers,|
[M:2/2] A2 F2 f4 | d2 B2 c4 | A2 F2 B4 |[M:2/2] G2 c2 f4 | d2 B2 _e4 | d2 c2 B4 | A4!p! F4 | F8- | %49
w: dance with glad-|ness, with glad-|ness, with glad-|\-ness, with glad-|ness, with glad-|ness, with glad-|ness, for|while|
 F8 | F8 | c6!f! _e2 | d4 c4- | c4 B4- | B4 A4 | G8 | !fermata!A8 |] %57
w: |Love|sleeps is|truce with|* care|* and|sad-|ness.|
V:2
 z8 |!mf! F4 B,3 C | D_EFD EFGA |[M:2/2] B2 B,C D_EFD | (!courtesy!=E2 F4 E2) | F4 z2 F2- | %6
w: |Come, shep- herds,|fol- low me, run up a- pace the|moun- tain, run up a- pace the|moun * *|tain, come,|
 F2 B4 A2 | G2 G2 F3 _E | D4 C2 CD | E2 F4 E2 | F8 | z2!p! A2 G4 | z2 G2 A3 G | (FG A2) B2 F2 | %14
w: * shep- herds,|shep- herds, fol- low|me, run up a-|pace the moun-|tain.|See, lo,|be- sides the|foun * * tain, see,|
 B3 A G2!mf! D2 | G3 F _E2 D2 | C4 F4 | z8 | z4!p! C4 | E4 F4 | G4 F4 | E4 z2!pp! G2 | A3 G A4 | %23
w: lo, be- sides, see,|lo, be- sides the|foun- tain||Love|laid to|rest, to|rest, How|sweet- ly, sweet-|
 G2 G4 F2 | !courtesy!=E2 F2 F2 E2 | F4 F2 F2- | F2 C2 D4 | z4 z2!p! C2 | C2 A,2 G,3 G, | %29
w: ly sleep- eth|he, how sweet- ly,|sweet- ly sleep|* eth he,|how|sweet- ly, sweet- ly|
 (A,G,A,B, C2) C2 | B,6 F2 | G2 B4 A2 | G2 F2 F2"^cresc." C2 | D_EFE (D2 G2) | F4 z2 F2 | %35
w: sleep * * * * eth|he; O|take heed, come|not nigh him, but|haste we hence and fly *|him, but|
 F2 D2 _E2 (DE | F4) F4 | F8 |[M:3/4]!f! F2 A2 G2 | B6 | A2 G2 !courtesy!=E2 |[M:2/2] F4 C2 C2 | %42
w: haste we hence and *|* fly|him,|and, lov- ers,|dance,|and, lov- ers,|dance, lov- ers,|
 D4 C2 F2- | F2 D2 B,2"^__" _E2- |[M:2/2]"^___" E2 C4 F2 | B4 G2 _E2 | F2 F4 !courtesy!=E2 | %47
w: dance with glad|* ness, with glad|* ness, with|glad- ness, with|glad- ness, glad-|
 F2!p! C2 D2 C2 | B,2 A,2 B,2 C2 | D2 C2 B,2 A,2 | D4!f! C4 | F4 (_E2"^___" G2-) | %52
w: ness, for while Love|sleeps, for while Love|sleeps, for while Love|sleeps is|truce with care|
"^__________" (G2 F2) F4 | (!courtesy!=E4 F4 | G4 F4- | F4 E4) | !fermata!F8 |] %57
w: * * and|sad *|||ness.|
V:3
 z8 | z8 | z8 |[M:2/2][K:treble-8] z8 | z4!mf! c4 | F3 G ABcA | Bcd_e f2 F2 | (GABc) d3 c | %8
w: ||||Come,|shep- herds, fol- low me, run|up a- pace the moun- tain,|run * * * up a-|
 B2 A2 G2 F2 | G2 (AB) c4 | c8 | z2!p! f2 e4 | z2 e2 f3 _e | d2 c2 B2 c2 | d4 B2!mf! B2 | %15
w: pace, run up a-|pace the * moun-|tain.|See, lo,|see, lo, be-|sides, be- sides the|foun- tain, see,|
 _E3 F GA (B2- | B2 A2) B3 A | F (GAB) c4 | c4!p! A4- | A4 G2 F2 | E4 F4 | c4 z2!pp! c2 | %22
w: lo, be- sides the foun|* * tain, be-|\-sides the * * foun-|tain Love|* laid to|rest, to|rest, How|
 f3 e f2 c2 | (_e6 d2) | c8 | F2!p! c2 d3 c | d2 c2 (B3 c | d2) c2 c2 A2 | G2 F2 c4 | c4 F2 f2 | %30
w: sweet- ly, sweet- ly|sleep *|\-eth|he, how sweet- ly,|sweet- ly sleep *|* eth he, how|sweet- ly sleep-|\-eth he; O|
 _e2 d4 c2 | B4 f4 | _e2 d2 c2"^cresc." f2 | f_edc (BAGA) |"^______" (B4 B4) | z2 B2 c2 B2 | %36
w: take heed, take|heed, come|not night him, but|haste we hence and fly * * *|* him,|but haste we|
 c2 d2 c4 | d8 |[M:3/4][K:treble-8]!f! d2 c2 _e2 | f6 | f2 d2 c2 |[M:2/2] c4 A4 | B4 A2 F2 | %43
w: hence and fly|him,|and, lov- ers,|dance,|and, lov- ers,|dance with|glad- ness, with|
 f4 d2 B2 |[M:2/2][K:treble-8] (c2 A4) B2- | B2 G2 (c3 B | AB c2 d2 B2) | c4 z2!p! A2 | %48
w: glad- ness, with|glad * ness,|* with glad *||ness, for|
 d2 c2 B2 A2 | B2 c2 d2 c2 | B2 B2 A2!f! F2 | A6 G2 | B4 A4 | G4 F4 | E4 F4 | c8 | !fermata!c8 |] %57
w: while Love sleeps, for|while Love sleeps, for|while Love sleeps is|truce with|care, is|truce with|care and|sad-|ness.|
V:4
 z8 | z8 | z8 |[M:2/2] z8 | z8 | z4!mf! F,4 | B,,3 C, D,_E,F,D, | _E,F,G,A, B,2 B,,C, | %8
w: |||||Come,|shep- herds, fol- low me, run|up a- pace the moun- tain, run|
 D,_E,F,D, =E,2 F,2 | C,8 | F,8 | z2!p! F,2 C4 |"^This edition  Andrew Sims 2000" z2 C,2 F,4 | %13
w: up a- pace, a- pace the|moun-|tain.|See, lo,|see, lo,|
 z2 F,2 B,3 A, | G,2 D,2 _E,2 B,,2 | z8 | z2!mf! F,2 B,,3 C, | D,_E, (F,4 =E,2) | F,4!p! F,4 | %19
w: see, lo, be-|sides the foun- tain,||see, lo, be-|\-sides the foun *|tain Love|
 C,4 D,4 | C,8- | C,8 | z8 | z8 | z8 | z2!p! F,2 B,3 A, | B,2 A,2 (G,3 F, | D,_E, F,2 =E,2 F,2 | %28
w: laid to|rest,|||||How sweet- ly,|sweet- ly sleep *||
 C,4) C,4 | F,4 z2 F,2 | G,2 B,4 A,2 | G,2 G,2 F,4 | G,2 B,2 F,4 | B,4 z2"^cresc." B,2 | %34
w: * eth|he; O|take heed, come|not nigh him,|come not nigh|him, but|
 B,CD_E (FEDC | B,A,G,F, _E,F, G,2 | F,8) | B,,8 |[M:3/4]!f! B,2 F,2 C2 | B,6 | F,2 G,2 C,2 | %41
w: haste we hence and fly * * *|||him,|and, lov- ers,|dance,|and, lov- ers,|
[M:2/2] F,8 | z8 | F,2 B,4 G,2 |[M:2/2] _E,2 F,4 D,2 | B,,2 _E,4 C,2 | F,2 (A,2 G,4) | %47
w: dance||with glad- ness,|with glad- ness,|with glad- ness,|with glad *|
 F,4 z2!p! F,2 | B,2 C2 D2 C2 | B,2 A,2 B,2 F,2 | D,2 B,,2 F,4- | F,4!f! C,4 | D,4 F,4 | C,4 D,4 | %54
w: ness, for|while Love sleeps, for|while Love sleeps, for|while Love sleeps|* is|truce with|care and|
 C,8- | C,8 | !fermata!F,8 |] %57
w: sad||ness.|

